X:1
T:Title
%%score { ( 1 3 ) | 2 }
L:1/8
Q:1/4=106
M:4/4
K:Bb
V:1 treble nm="Grand Piano"
V:3 treble 
V:2 bass 
V:1
 [Fd]>[Fd] [Fd]>[Ge] [Fd]>[Ec] [DB]2 | G>A B>G [DB]4 | [Fd]>[Fd] [Fd]>[Ge] [Fd]>[Ec] [DB]2 | %3
w: C.~Austin~Miles * * * * * *|||
 [=Ec]>[Ec] [Ec]>[Ed] c4 | d>d d>e f>e d2 | c>B B>c [^Fd]4 | z2 z z/ c/ z4 | d2 c2 [DB]4 | %8
w: |||||
 [Fd]2 [Fd]>[Fd] [Fd][Ec] .[DB]2 | [Fd]2 [Fd]>[Fd] [Fd][Ec] .[DB]2 | [Ge]4 [GB]2 [^Fc]2 | %11
w: |||
 [Fd]6 z2 | e2 c2 A2 F2 | [DB][CA][DB][Ec] [Fd]2 [Fd]2 | [=Ec]2 [EB]2 [EA]2 [EG]2 | F2 f2 f2 f2 | %16
w: |||||
 [Fd]2 [Fd]>[Fd] [Fd][Ec] .[DB]2 | [Fd]2 [Fd]>[Fd] [Fd][Ec] .[DB]2 | [Ge]4 [GB]2 [Gc]2 | %19
w: |||
 [^Fd]6 z2 | e2 c2 A2 F2 | [Df]2 [Fd]2 [FB]2 c2 | d3 B d2 c2 | [DB]6 z2 |] %24
w: |||||
V:2
 [B,,B,]>[B,,B,] [B,,B,]>[B,,B,] [B,,B,]>[B,,B,] [B,,B,]2 | %1
 [E,B,E]>[E,A,E] [E,G,E]>[E,B,E] [B,,B,]4 | %2
 [B,,B,]>[B,,B,] [B,,B,]>[B,,B,] [B,,B,]>[B,,B,] [B,,B,]2 | [C,G,]>[C,G,] [C,G,]>[C,B,] [F,A,E]4 | %4
 [B,F]>[B,F] [B,F]>[B,CF] [B,DF]>[B,CF] [B,F]2 | [E,G,E]>[E,G,E] [E,G,E]>[E,G,E] [D,A,]4 | %6
 [F,A,F]>[F,A,F] [F,B,F]>.[F,A,E] [D,B,]>[D,B,] [G,B,E]>[^F,B,E] | [F,B,F]2 [F,A,E]2 [B,,F,]4 | %8
 [B,,B,]2 [B,,B,]>[B,,B,] [B,,B,][B,,B,] .[B,,B,]2 | %9
 [B,,B,]2 [B,,B,]>[B,,B,] [B,,B,][B,,B,] .[B,,B,]2 | [E,B,]4 [E,B,]2 [E,B,]2 | [B,,B,]6 z2 | %12
 [F,A,F]2 [F,A,F]2 [F,CF]2 [F,A,E]2 | [B,,B,][B,,B,][B,,B,][B,,B,] [B,,B,]2 [B,,B,]2 | %14
 [C,G,]2 [C,G,]2 [C,C]2 [C,B,]2 | [F,A,]2[K:treble] F2 F2 F2 | %16
 [B,,B,]2 [B,,B,]>[B,,B,] [B,,B,][B,,B,] .[B,,B,]2 | %17
 [B,,B,]2 [B,,B,]>[B,,B,] [B,,B,][B,,B,] .[B,,B,]2 | [E,B,]4 [E,B,]2 [E,G,]2 | [D,A,]6 z2 | %20
 [F,A,F]2 [F,A,F]2 [F,CF]2 [F,A,E]2 | [B,,B,]2 [B,,B,]2 [D,B,]2 [E,G,E]2 | %22
 [F,B,F]3 [F,DF] [F,B,F]2 [F,A,E]2 | [B,,B,]6 z2 |] %24
V:3
 x8 | x8 | x8 | x8 | x8 | x8 | e>e d3/2 z/4 D,/4 [Ff]>[Fd] B>c | x8 | x8 | x8 | x8 | x8 | x8 | x8 | %14
 x8 | x8 | x8 | x8 | x8 | x8 | x8 | x8 | x8 | x8 |] %24

